X:8
T:Miss E. Elders
S:Petrie's Collection of Strathspey Reels and Country Dances &c., 1790
Z:Steve Wyrick <sjwyrick'at'gmail'dot'com>, 3/5/04
N:Petrie's First Collection, page 4
L:1/8
M:C|
R:Reel
K:Bb
D|B,2 BF GBFD|.E(GFD)     Cc-ce|dBAc BGFD|ECTF>E DB,B,:|
a|bfdB   fBdB|FB {e}dc/B/ Ac-ce|dbfd Bdfd|ecfe   dBBa  |
  bfdB   fBdB|ecdB        Ac-cE|DFBd EGce|dfec dBB    |]
